X:1
T:My Dame Had a Lame Tame Crane
M:4/4
L:1/4
K:C
 z2 z G,| C B,/2C/2 D G,| C3 G,| E D/2E/2 F E/2D/2| G4| G G/2E/2 F E/2D/2|\
 E C D G,| C B,/2C/2 D G,| C3 z|
